X:1
T:50
L:1/8
M:4/4
K:G
V:1 treble nm="Piano" snm="Pno."
V:1
 BA Bd EG A/G/A/B/ | G2 z E DB, D/B,/D/E/ | G2 z2 ED G2 | GA B/A/B/d/ A2 z d | BA Bd EG A/G/A/B/ | %5
 G2 z E DB, D/B,/D/E/ | G2 z2 ED Bd | AG E/D/E/G/ D2 z2 | de d/e/d/c/ B2 z B | de d/e/d/B/ A2 z B | %10
 Ad B2 E/^F/E/D/ G2 | GA B/A/B/d/ A2 z B | AA z B/e/ d2 d2 | A2 d2 Ad B/d/B/A/ | G2 z2 ED/E/ G2 | %15
 ED/E/ GG GA B/A/B/d/ | A2 z2 AA z B/e/ | d2 d2 AB d2 | Ad B/d/B/A/ G2 z2 |] %19

